X:1
T:Sí bheag, sí mhor
C:Carolan
O:Ireland
M:3/4
K:D
(de) |:\
"D"f2 (fe) d2 |"D" d2 (de) d2 |"G" B4 A2 |"D" F4 A2 |"G" (BA) (Bc) d2 |"A" e4 (de) |
"D"f4 "A"e2 |"D" d4 f2 |"G" B4 e2 |"A" A4 d2 |"F#m"F4 E2 |"Bm" D4 f2 |"G"B4 e2 |"A" A4 (dc) |"D" (d6 | d4) de  :|
|:"D" f2 (fe) d2 |"D" (ed) (ef) a2 |"G"b4 "A"a2 |"D" f4 (ed) |"A" e4 ag |"F#m"f4 (ed) |"D" d4 B2 |"Bm" B4 (BA) |
"D" F4 "A"E2 |"D"D4 f2 |"G" B4 e2 |"A" A4 a2 |"G" (bagfed) |"A" e4 dc |"D" (d6 | d4) (de) :|

